X:52
T: My Last Days On Earth
C: Bill Monroe (standard tuning)
S: MandoZine TablEdit Archives
Z: Converted to Standard tuning & TablEdited by Jim Coon & Mike Stangeland
L: 1/8
Q: 200
M: 3/4
K: Dm
 z3A, A,C | "Part A""Dm"[D/4D/4][D/4D/4][D/4D/4][D/4D/4][D/4D/4][D/4D/4][D/4D/4][D/4D/4] [DD][DD] (3DCA, |
 "F"E/4F/4F/4F/4F/4F/4F/4F/4 FF (3FGF | "C"E/4E/4E/4E/4E/4E/4E/4E/4 EF (3E/F/E/_D |
 "Dm"D/4D/4D/4D/4D/4D/4D/4D/4 DD A,C | [D/4D/4][D/4D/4][D/4D/4][D/4D/4][D/4D/4][D/4D/4][D/4D/4][D/4D/4] [DD][DD] (3DCA, |
 "G"[d/4=B/4][d/4=B/4][d/4=B/4][d/4=B/4][d/4=B/4][d/4=B/4][d/4=B/4][d/4=B/4] [d/4=B/4][d/4=B/4][d/4=B/4][d/4=B/4][d/4=B/4][d/4=B/4][d/4=B/4][d/4=B/4] [d=B][d=B] |
 "A"[e/4_d/4A/4][e/4_d/4A/4][e/4_d/4A/4][e/4_d/4A/4][e/4_d/4A/4][e/4_d/4A/4][e/4_d/4A/4][e/4_d/4A/4] [e/4_d/4A/4][e/4_d/4A/4][e/4_d/4A/4][e/4_d/4A/4][e/4_d/4A/4][e/4_d/4A/4][e/4_d/4A/4][e/4_d/4A/4] [e_dA][e_dA] |
 [e/4_d/4A/4][e/4_d/4A/4][e/4_d/4A/4][e/4_d/4A/4][e/4_d/4A/4][e/4_d/4A/4][e/4_d/4A/4][e/4_d/4A/4] [e_dA][e_dA] A,C |
 "Dm"[D/4D/4][D/4D/4][D/4D/4][D/4D/4][D/4D/4][D/4D/4][D/4D/4][D/4D/4] [DD][DD] (3DCA, |
 "F"E/4E/4F/4F/4F/4F/4F/4F/4 FF (3FGF | "C"E/4E/4E/4E/4E/4E/4E/4E/4 EF (3E/F/E/D |
 "Dm"D/4D/4D/4D/4D/4D/4D/4D/4 DD A,C | D/4D/4D/4D/4D/4D/4D/4D/4 DD (3FED | "A"E/4E/4E/4E/4E/4E/4E/4E/4 EE (3FED |
 "Dm"[D/4D/4][D/4D/4][D/4D/4][D/4D/4][D/4D/4][D/4D/4][D/4D/4][D/4D/4] [D/4D/4][D/4D/4][D/4D/4][D/4D/4][D/4D/4][D/4D/4][D/4D/4][D/4D/4] [DD][DD] |
 [D/4D/4][D/4D/4][D/4D/4][D/4D/4][D/4D/4][D/4D/4][D/4D/4][D/4D/4]
 [D/4D/4][D/4D/4][D/4D/4][D/4D/4][D/4D/4][D/4D/4][D/4D/4][D/4D/4] [DD][DD] ||
